X: 442
T: The North Loch
R: reel
B: Robert Bremner "A Collection of Scots Reels or Country Dances" 1757 p.44 #2
S: http://imslp.org/wiki/A_Collection_of_Scots_Reels_or_Country_Dances_(Bremner,_Robert)
Z: 2013 John Chambers <jc:trillian.mit.edu>
M: C
L: 1/8
K: Gmix
% - - - - - - - - - - - - - - - - - - - - - - - - -
V: 1
c |\
BGdG Bcdf | AFcF TA2Fc |\
BGdG Bcdg | BGA^F G/G/G G :|\
|: ^f |\
(g>ag)d (ga)(gd) | ^fgfc TA2F^f |
g>agd g>agd | c<Ad>c TB2G^f |\
g>agd g>agd | ^f>gfc TA2FA |\
BGcA dBge | dcBA TB2G :|
% - - - - - - - - - - - - - - - - - - - - - - - - -
V: 2 clef=bass middle=d
z |\
g2g2 g2g2 | f2f2 f2f2 |\
g2g2 g2g2 | d2d2 G2G :|\
|: z |\
g2g2 g2g2 |
f2f2 f2f2 |\
g2g2 g2g2 | d2d2 G2G2 |\
g2g2 g2g2 | f2f2 F2F2 |\
G2A2 B2c2 | d2d2 G2G :|
% - - - - - - - - - - - - - - - - - - - - - - - - -

%%sep 1 1 500
%%sep 1 1 500
